X:1
T:Title
%%score { 1 | 2 }
L:1/8
Q:1/4=80
M:4/8
K:E
V:1 treble nm="Grand Piano"
V:2 bass 
V:1
 E>GBB | cBB<G | [DB]>[DF][DF]<[DF] | G>BB<B | E>G[GB][GB] | cBB<G | [DB]2 [DF]>[DG] | %7
w: William~J.~Kirkpatrick * * *|||||||
 [B,F]<[B,E]-[B,E]3/2 z/ | [Ge]>[Gd][Ac][GB] | [Ac][GB]G<B | c>B[Ge]>[Ac] | [GB][EG][EG]<[DF] | %12
w: |||||
 E>FG>F | EcB<G | [DB]<[DB][DF]>[DG] | F<E-E3/2 z/ |] %16
w: ||||
V:2
 [E,G,B,]>[E,B,E][E,G,E][E,G,E] | [E,A,E][E,G,E][E,G,E]<[E,G,E] | [B,,F,]>[B,,B,][B,,B,]<[B,,B,] | %3
 [E,B,E]>[E,G,E][E,G,E]<[E,G,E] | [E,G,B,]>[E,B,E][E,E][E,B,] | [E,A,E][E,G,E][E,G,E]<[E,G,B,] | %6
 [B,,F,]2 [B,,A,]>[B,,B,] | [E,A,]<[E,G,]-[E,G,]3/2 z/ | [E,B,]>[E,B,][E,A,][E,B,] | %9
 [E,E][E,E][E,B,E]<[E,G,E] | [E,A,E]>[E,G,E][E,B,]>[E,E] | [E,E][E,B,][B,,B,]<[B,,B,] | %12
 [E,G,B,]>[E,A,B,][E,B,]>[E,A,B,] | [E,G,B,][E,A,E][E,G,E]<[E,B,E] | %14
 [B,,B,]<[B,,F,][B,,A,]>[B,,B,] | [E,A,B,]<[E,G,B,]-[E,G,B,]3/2 z/ |] %16

